public/logos/CU.svg

<?xml version="1.0" encoding="UTF-8"?>
<svg xmlns="http://www.w3.org/2000/svg" xmlns:xlink="http://www.w3.org/1999/xlink" width="176pt" height="47.57pt" viewBox="0 0 176 47.57" version="1.1">
<defs>
<clipPath id="clip1">
  <path d="M 0 0 L 40 0 L 40 47.570312 L 0 47.570312 Z M 0 0 "/>
</clipPath>
<clipPath id="clip2">
  <path d="M 31 33 L 65 33 L 65 47.570312 L 31 47.570312 Z M 31 33 "/>
</clipPath>
</defs>
<g id="surface1">
<g clip-path="url(#clip1)" clip-rule="nonzero">
<path style=" stroke:none;fill-rule:evenodd;fill:rgb(84.422302%,11.732483%,14.61792%);fill-opacity:1;" d="M 11.554688 47.570312 L 0 0 L 39.398438 47.570312 L 11.554688 47.570312 "/>
</g>
<path style=" stroke:none;fill-rule:evenodd;fill:rgb(21.366882%,25.709534%,61.494446%);fill-opacity:1;" d="M 24.480469 0.0390625 L 36.035156 14.273438 L 15.339844 14.273438 L 3.46875 0.0390625 L 24.480469 0.0390625 "/>
<path style=" stroke:none;fill-rule:evenodd;fill:rgb(21.366882%,25.709534%,61.494446%);fill-opacity:1;" d="M 38.347656 16.625 L 49.90625 30.859375 L 29.210938 30.859375 L 17.335938 16.625 L 38.347656 16.625 "/>
<g clip-path="url(#clip2)" clip-rule="nonzero">
<path style=" stroke:none;fill-rule:evenodd;fill:rgb(21.366882%,25.709534%,61.494446%);fill-opacity:1;" d="M 52.53125 33.210938 L 64.089844 47.445312 L 43.394531 47.445312 L 31.519531 33.210938 L 52.53125 33.210938 "/>
</g>
<path style=" stroke:none;fill-rule:evenodd;fill:rgb(21.366882%,25.709534%,61.494446%);fill-opacity:1;" d="M 85.886719 32.203125 L 79.324219 46.234375 L 92.789062 46.234375 L 95.726562 40.609375 L 91.582031 40.609375 L 90.546875 43.183594 L 85.367188 43.183594 L 88.820312 35.527344 L 93.65625 35.527344 L 92.789062 38.101562 L 96.242188 38.101562 L 99.179688 32.203125 L 85.886719 32.203125 "/>
<path style=" stroke:none;fill-rule:evenodd;fill:rgb(21.366882%,25.709534%,61.494446%);fill-opacity:1;" d="M 114.023438 32.136719 L 108.328125 46.234375 L 95.035156 46.234375 L 101.769531 32.203125 L 105.394531 32.203125 L 100.90625 43.183594 L 105.394531 43.183594 L 110.574219 32.136719 L 114.023438 32.136719 "/>
<path style=" stroke:none;fill-rule:evenodd;fill:rgb(21.366882%,25.709534%,61.494446%);fill-opacity:1;" d="M 117.824219 37.898438 L 122.484375 37.964844 C 123.519531 37.964844 124.382812 37.21875 124.730469 35.527344 L 119.03125 35.527344 Z M 116.960938 40.472656 L 115.578125 43.320312 L 120.757812 43.183594 C 122.140625 41.289062 121.621094 40.339844 119.550781 40.339844 Z M 123.347656 46.234375 L 110.398438 46.234375 L 116.613281 32.136719 L 129.5625 32.136719 C 127.835938 36.746094 126.109375 39.117188 124.730469 39.457031 C 125.59375 41.015625 125.074219 43.320312 123.347656 46.234375 "/>
<path style=" stroke:none;fill-rule:evenodd;fill:rgb(21.366882%,25.709534%,61.494446%);fill-opacity:1;" d="M 144.925781 32.136719 L 139.402344 46.371094 L 135.433594 46.371094 L 136.8125 42.644531 L 131.289062 42.644531 L 129.5625 46.371094 L 126.109375 46.371094 L 131.980469 32.136719 Z M 134.222656 35.59375 L 132.152344 39.589844 L 138.019531 39.589844 L 139.746094 35.59375 L 134.222656 35.59375 "/>
<path style=" stroke:none;fill-rule:evenodd;fill:rgb(21.366882%,25.709534%,61.494446%);fill-opacity:1;" d="M 147.515625 32.136719 L 141.644531 46.234375 L 145.445312 46.234375 L 149.414062 35.59375 L 155.28125 35.59375 L 150.96875 46.371094 L 154.9375 46.371094 L 159.773438 32.136719 L 147.515625 32.136719 "/>
<path style=" stroke:none;fill-rule:evenodd;fill:rgb(21.366882%,25.709534%,61.494446%);fill-opacity:1;" d="M 176 32 L 170.476562 46.234375 L 166.507812 46.234375 L 167.886719 42.507812 L 162.363281 42.507812 L 160.636719 46.234375 L 157.183594 46.234375 L 163.054688 32 Z M 165.296875 35.527344 L 163.226562 39.457031 L 169.097656 39.457031 L 170.820312 35.527344 L 165.296875 35.527344 "/>
</g>
</svg>

<svg xmlns="http://www.w3.org/2000/svg" width="176pt" height="63.427" viewBox="0 0 176 47.57"><defs><clipPath id="a"><path d="M0 0h40v47.57H0Zm0 0"/></clipPath><clipPath id="b"><path d="M31 33h34v14.57H31Zm0 0"/></clipPath></defs><g clip-path="url(#a)"><path d="M11.555 47.57 0 0l39.398 47.57z" style="stroke:none;fill-rule:evenodd;fill:#d71e25;fill-opacity:1"/></g><path d="m24.48.04 11.555 14.233H15.34L3.469.04zM38.348 16.625l11.558 14.234H29.211L17.336 16.625z" style="stroke:none;fill-rule:evenodd;fill:#36429d;fill-opacity:1"/><g clip-path="url(#b)"><path d="M52.531 33.21 64.09 47.446H43.395L31.52 33.211z" style="stroke:none;fill-rule:evenodd;fill:#36429d;fill-opacity:1"/></g><path d="m85.887 32.203-6.563 14.031H92.79l2.938-5.625h-4.145l-1.035 2.575h-5.18l3.453-7.657h4.836l-.867 2.575h3.453l2.938-5.899zM114.023 32.137l-5.695 14.097H95.035l6.735-14.03h3.625l-4.489 10.98h4.489l5.18-11.047zM117.824 37.898l4.66.067c1.036 0 1.899-.746 2.246-2.438h-5.699Zm-.863 2.575-1.383 2.847 5.18-.136c1.383-1.895.863-2.844-1.207-2.844Zm6.387 5.761h-12.95l6.215-14.097h12.95c-1.727 4.61-3.454 6.98-4.833 7.32.864 1.559.344 3.863-1.382 6.777M144.926 32.137l-5.524 14.234h-3.968l1.379-3.726h-5.524l-1.726 3.726h-3.454l5.871-14.234Zm-10.703 3.457-2.07 3.996h5.867l1.726-3.996zM147.516 32.137l-5.871 14.097h3.8l3.97-10.64h5.866L150.97 46.37h3.969l4.835-14.234zM176 32l-5.523 14.234h-3.97l1.38-3.726h-5.524l-1.726 3.726h-3.453L163.054 32Zm-10.703 3.527-2.07 3.93h5.87l1.723-3.93z" style="stroke:none;fill-rule:evenodd;fill:#36429d;fill-opacity:1"/></svg>
